public/bg_creation_compte.svg

<svg width="165" height="165" viewBox="0 0 165 165" fill="none" xmlns="http://www.w3.org/2000/svg">
<path d="M83.7791 60.3447H52.8716V91.0722H83.7791V60.3447Z" fill="#9B7EDE"/>
<path d="M83.7791 60.3447H52.8716V63.6815H83.7791V60.3447Z" fill="#66D7D1"/>
<path d="M76.8058 87.2542C75.3399 87.1333 73.9142 86.7143 72.616 86.0229C71.3178 85.3314 70.1744 84.3822 69.256 83.2333C68.2369 81.9395 67.5304 80.4278 67.1915 78.8162C65.9034 78.8029 64.6432 78.4398 63.5456 77.7657C62.448 77.0915 61.5542 76.1317 60.96 74.9888C60.3657 73.846 60.0934 72.5631 60.1719 71.2774C60.2505 69.9916 60.6771 68.7514 61.4061 67.6895L62.0302 68.0975C61.3963 69.0373 61.025 70.1295 60.9547 71.2609C60.8845 72.3924 61.1178 73.522 61.6307 74.533C62.1435 75.544 62.9172 76.3996 63.8717 77.0112C64.8262 77.6229 65.9267 77.9684 67.0595 78.012C66.9094 76.9852 66.9094 75.942 67.0595 74.9152C67.2995 73.3788 68.1757 71.5064 69.9042 71.2543C70.5157 71.1939 71.1303 71.3332 71.6561 71.6513C72.1819 71.9693 72.5905 72.4491 72.8209 73.0188C73.0343 73.5747 73.1067 74.1749 73.0313 74.7656C72.9558 75.3563 72.7351 75.9191 72.3888 76.4036C71.7406 77.3758 70.7921 78.1093 69.6881 78.4921C69.1289 78.6825 68.5484 78.8035 67.9597 78.8522C68.4185 80.9234 69.5327 82.7916 71.137 84.1797C72.7413 85.5678 74.7502 86.4018 76.8659 86.5581L76.8058 87.2542ZM70.2403 72.0345H70.0242C68.7039 72.2266 68.0077 73.787 67.8157 75.0593C67.6597 76.0494 67.6597 77.0578 67.8157 78.048C68.3677 78.012 68.9126 77.903 69.4361 77.7239C70.3779 77.4196 71.1979 76.8225 71.7766 76.0195C72.0527 75.6376 72.2301 75.1934 72.2929 74.7264C72.3558 74.2594 72.3022 73.7841 72.1368 73.3428C71.98 72.9655 71.7176 72.6413 71.3812 72.4093C71.0449 72.1772 70.6487 72.0471 70.2403 72.0345Z" fill="white"/>
<path d="M83.083 88.3827L105.288 85.7061L97.3545 57.6553L81.9907 59.5157L82.1108 62.9126L82.5189 73.3551L83.083 88.3827Z" fill="#F8C49E"/>
<path d="M82.5197 73.3556C84.7215 73.102 86.8556 72.4341 88.8092 71.3871C92.0667 69.629 94.6937 66.8971 96.323 63.5733C91.7499 63.4052 87.2008 63.0811 82.6277 62.9131C82.4597 62.9131 82.2916 62.9131 82.1235 62.9131L82.5197 73.3556Z" fill="black"/>
<path d="M113.836 46.7209C113.787 47.8108 113.454 48.869 112.868 49.7895C112.283 50.71 111.466 51.4606 110.499 51.9662C109.442 52.4782 108.276 52.724 107.102 52.6822C105.928 52.6403 104.783 52.3121 103.765 51.7261C103.338 55.7864 101.568 59.588 98.7359 62.5287C97.7567 63.5393 96.6608 64.4298 95.4712 65.1814H95.3871C91.4646 67.5635 86.7804 68.3577 82.2919 67.4019C81.4234 67.2132 80.5723 66.9522 79.7473 66.6217C77.2036 65.604 74.9357 64.0009 73.1276 61.9425C71.3195 59.8842 70.0221 57.4285 69.3408 54.7749C68.3085 50.5738 68.9086 46.1567 69.6288 41.8957C70.0721 38.5373 70.9811 35.257 72.3295 32.1493C72.3662 32.054 72.4103 31.9617 72.4615 31.8733C72.9637 30.8488 73.5712 29.8794 74.2739 28.9806L74.478 28.7285C77.0256 25.7667 80.5867 23.8621 84.4644 23.3872C85.1527 23.295 85.8466 23.2509 86.541 23.2552C88.8832 23.3029 91.1928 23.8132 93.3372 24.7566C95.4815 25.7001 97.4182 27.058 99.036 28.7525C99.7836 29.524 100.462 30.3594 101.064 31.2491C103.076 34.2495 104.279 37.7182 104.557 41.3196C105.502 40.7614 106.576 40.4599 107.673 40.4452C108.77 40.4305 109.852 40.7029 110.811 41.2356L111.183 41.4636C112.024 42.054 112.705 42.8427 113.168 43.7598C113.631 44.6768 113.86 45.694 113.836 46.7209Z" fill="#F8C49E"/>
<path d="M106.55 48.8098L105.842 48.6537V43.7686H106.586V47.3694C106.972 46.9684 107.438 46.6534 107.954 46.4452C108.878 46.0727 109.911 46.0727 110.835 46.4452L110.547 47.1294C109.804 46.8297 108.973 46.8297 108.23 47.1294C107.472 47.4481 106.869 48.0514 106.55 48.8098Z" fill="black"/>
<path d="M82.3389 52.9379C82.1289 52.9389 81.9208 52.8981 81.7267 52.8179C81.3544 52.6793 81.0522 52.3988 80.8865 52.0377C80.7493 51.5622 80.7165 51.0627 80.7905 50.5734L81.4026 43.8037L82.1588 43.8757L81.5346 50.6454C81.4756 51.0215 81.496 51.4059 81.5946 51.7737C81.6865 51.9379 81.8363 52.062 82.0148 52.1217C82.1149 52.1664 82.2233 52.1895 82.3329 52.1895C82.4425 52.1895 82.5508 52.1664 82.6509 52.1217L82.975 52.7939C82.7762 52.8883 82.559 52.9376 82.3389 52.9379Z" fill="black"/>
<path d="M84.8231 56.1438H84.7031V55.3876C85.1033 55.3995 85.5016 55.329 85.8733 55.1803C86.245 55.0316 86.5821 54.808 86.8636 54.5234C87.1435 54.2361 87.3598 53.8931 87.4984 53.5168C87.6369 53.1404 87.6947 52.739 87.6679 52.3389H88.424C88.4586 52.8325 88.3912 53.328 88.2258 53.7944C88.0604 54.2608 87.8007 54.6881 87.4628 55.0496C87.1249 55.4112 86.7161 55.6992 86.262 55.8957C85.8078 56.0922 85.318 56.193 84.8231 56.1918V56.1438Z" fill="black"/>
<path d="M87.8479 44.5361C87.9199 45.1242 88.292 45.5683 88.6881 45.5203C89.0842 45.4723 89.3362 44.9562 89.2642 44.32C89.1922 43.6839 88.8201 43.2998 88.436 43.3478C88.0519 43.3958 87.7759 43.9479 87.8479 44.5361Z" fill="black"/>
<path d="M75.4249 44.884C75.4969 45.4602 75.869 45.9043 76.2651 45.8562C76.6612 45.8082 76.9132 45.2921 76.8412 44.656C76.7692 44.0198 76.3971 43.6357 76.001 43.6837C75.6049 43.7317 75.3528 44.2599 75.4249 44.884Z" fill="black"/>
<path d="M89.6849 41.1279C90.0502 41.1767 90.4215 41.1523 90.7772 41.0559C91.3893 40.7678 91.3773 40.1197 90.7772 39.7356C90.1351 39.3779 89.4116 39.1918 88.6766 39.1954C88.1455 39.1073 87.6002 39.2004 87.1283 39.4595C86.9546 39.6009 86.8382 39.8006 86.8007 40.0213C86.7631 40.2421 86.807 40.469 86.9242 40.6598C87.5123 41.584 88.8327 41.1159 89.6849 41.1279Z" fill="black"/>
<path d="M75.077 41.8358C74.7171 41.9137 74.3447 41.9137 73.9848 41.8358C73.3486 41.6197 73.2886 40.9716 73.8167 40.5275C74.428 40.1158 75.1348 39.8679 75.8693 39.8073C76.3919 39.6691 76.946 39.7114 77.4416 39.9273C77.6332 40.0531 77.7712 40.2455 77.8289 40.4673C77.8866 40.6891 77.8598 40.9244 77.7537 41.1276C77.2736 42.0998 75.9292 41.7518 75.077 41.8358Z" fill="black"/>
<path d="M15.7585 40.6953C13.3579 41.0914 14.0061 49.4574 14.7382 54.9668Z" fill="#F8C49E"/>
<path d="M14.7148 54.9667C13.6945 50.9097 11.582 44.1641 8.98937 44.7882C5.04041 45.6524 11.2339 76.716 11.2339 76.716L35.0477 64.0889C32.011 57.5833 36.5001 51.2698 33.7275 50.2376C30.9548 49.2053 28.3741 55.9149 28.3741 55.9149C28.3741 55.9149 25.6374 41.2834 22.4806 41.8355C20.8963 42.1116 20.9203 47.6329 21.0643 50.7897C19.72 46.4206 17.4635 40.4192 15.759 40.6832" fill="#F8C49E"/>
<path d="M20.8001 52.4703C20.4881 45.4246 21.0282 41.7276 22.4085 41.4756L22.5406 42.2198C21.8444 42.3398 21.2443 45.5926 21.5563 52.4342L20.8001 52.4703Z" fill="black"/>
<path d="M14.3669 55.0155C13.1066 45.6172 13.5507 40.672 15.6992 40.3359L15.8192 41.0681C15.2311 41.1641 13.4187 42.4484 15.1111 54.9195L14.3669 55.0155Z" fill="black"/>
<path d="M22.6483 66.1658C22.5857 64.5899 22.9333 63.0248 23.6571 61.6236C24.3808 60.2223 25.456 59.033 26.7773 58.1719L27.1854 58.796C25.9754 59.5886 24.9904 60.6801 24.3259 61.9649C23.6615 63.2497 23.3399 64.6843 23.3925 66.1298L22.6483 66.1658Z" fill="black"/>
<path d="M23.1951 55.4153L13.104 58.957L13.3544 59.6705L23.4455 56.1288L23.1951 55.4153Z" fill="black"/>
<path d="M149.148 142.672C149.148 142.672 133.352 82.8134 125.298 79.0565C117.244 75.2996 102.384 75.1316 102.384 75.1316C102.384 75.1316 85.7004 90.2793 82.6877 75.9958C82.6877 75.9958 70.6128 76.5839 65.6556 78.8524C60.6984 81.121 47.5192 86.4143 47.5192 86.4143L35.0481 64.0889L11.2583 76.704C11.2583 76.704 16.4436 139.371 60.9264 119.542V142.66L149.148 142.672Z" fill="#13BF89"/>
<path d="M114.087 82.0091L113.583 81.637L114.375 64.4128L114.987 64.1367L129.595 75.6956L129.487 76.3437L114.087 82.0091ZM115.095 65.205L114.339 81.1089L128.587 75.8636L115.095 65.205Z" fill="black"/>
<path d="M86.6239 135.698C85.4838 138.207 84.0451 140.568 82.3389 142.732H45.2619C42.9813 139.827 40.6767 136.815 39.7045 133.262C38.7323 129.709 39.4644 125.184 42.5131 122.939C43.5506 122.173 44.7775 121.706 46.0613 121.586C47.3452 121.466 48.6374 121.699 49.7985 122.26C50.9596 122.821 51.9455 123.688 52.65 124.768C53.3544 125.848 53.7507 127.1 53.7959 128.388C54.1504 122.497 56.5438 116.912 60.5656 112.593C64.6826 108.452 70.9241 106.219 76.5895 107.683C79.3077 108.485 81.7809 109.957 83.7817 111.965C85.7825 113.972 87.247 116.449 88.0403 119.17C89.5665 124.671 89.0638 130.537 86.6239 135.698Z" fill="#D4F5BD"/>
<path d="M57.5776 142.852L57.0254 142.348C58.7259 140.593 60.573 138.987 62.5467 137.546C66.8317 134.438 70.4326 133.273 73.2773 134.066C75.93 134.81 77.8025 137.27 78.8587 141.399C80.0588 138.305 81.6135 135.361 83.4918 132.625C88.0169 126.144 93.5503 122.951 99.5038 123.419V124.163C85.7484 123.095 79.2548 142.636 79.1948 142.84H78.4746C77.5504 138.267 75.7499 135.638 73.1333 134.834C66.8078 132.973 57.6616 142.756 57.5776 142.852Z" fill="white"/>
<path d="M104.556 41.3799C103.489 41.1188 102.498 40.61 101.664 39.8948C100.83 39.1795 100.176 38.2779 99.7552 37.2629C98.8949 35.2468 98.4069 33.0915 98.3149 30.9014C98.9721 31.2918 99.742 31.4483 100.499 31.3455H101.1C103.092 34.339 104.283 37.7942 104.556 41.3799Z" fill="black"/>
<path d="M70.924 28.5723C70.4772 28.9113 70.1494 29.3832 69.9877 29.9202C69.826 30.4572 69.8386 31.0316 70.0237 31.561C70.2249 32.0876 70.5469 32.5596 70.9639 32.9391C71.3808 33.3185 71.8811 33.5947 72.4243 33.7455C73.5128 34.0504 74.6682 34.0169 75.7371 33.6495C77.4453 33.1245 78.9258 32.0374 79.9382 30.5648C80.1431 31.4259 80.5916 32.2098 81.2301 32.8228C81.8687 33.4358 82.6703 33.852 83.5391 34.0216C84.3884 34.1162 85.2467 33.9583 86.0067 33.5676C86.7668 33.177 87.3948 32.5708 87.8121 31.825" fill="black"/>
<path d="M102.791 34.4419L74.2598 29.0645L74.4639 28.8125C77.0115 25.8507 80.5725 23.946 84.4502 23.4712C85.1385 23.379 85.8324 23.3349 86.5268 23.3391C88.869 23.3869 91.1787 23.8972 93.3231 24.8406C95.4674 25.784 97.4041 27.142 99.0218 28.8365C100.593 30.4725 101.869 32.3691 102.791 34.4419Z" fill="#18284E"/>
<path d="M58.3397 25.6836L58.1997 26.4268L102.727 34.8162L102.867 34.0731L58.3397 25.6836Z" fill="#18284E"/>
<path d="M156.193 70.9668C155.622 74.4894 154.313 77.8516 152.352 80.8332C151.667 81.8598 150.82 82.7679 149.843 83.5218L147.791 80.8932L148.655 84.314C146.884 85.4054 144.782 85.8309 142.726 85.5143C142.539 83.6513 142.752 81.77 143.348 79.9952C143.945 78.2205 144.912 76.5929 146.186 75.2205C147.459 73.8481 149.01 72.7623 150.735 72.0351C152.461 71.308 154.321 70.9561 156.193 71.0028V70.9668Z" fill="#06A787"/>
<path d="M150.347 64.4852L146.914 65.2414L150.191 65.9016C150.191 66.2257 150.083 66.5497 150.023 66.8498C149.564 69.3295 148.459 71.6441 146.818 73.5595C145.917 74.5361 144.83 75.3219 143.619 75.8704C142.409 76.4188 141.101 76.7187 139.773 76.7522C138.92 72.9682 139.556 69.0012 141.55 65.6738C143.543 62.3463 146.741 59.9135 150.479 58.8799C150.443 60.6203 150.491 62.6128 150.347 64.4852Z" fill="#CCED9F"/>
<path d="M135.477 108.176H134.744C133.628 97.1449 136.893 78.9004 144.347 67.4736L144.971 67.8817C138.249 78.2643 134.985 94.2881 135.369 105.343C137.457 95.5965 140.818 85.6461 149.112 77.304L149.64 77.8322C140.65 86.7743 137.529 97.697 135.477 108.176Z" fill="black"/>
<path d="M135.799 142.672C147.864 142.672 157.645 134.138 157.645 123.611C157.645 113.085 147.864 104.551 135.799 104.551C123.735 104.551 113.954 113.085 113.954 123.611C113.954 134.138 123.735 142.672 135.799 142.672Z" fill="#8893E3"/>
<path d="M140.434 100.47H131.18V108.8H140.434V100.47Z" fill="#8893E3"/>
<path d="M55.261 106.015C54.6179 106.027 53.9788 105.912 53.3801 105.677C52.7814 105.442 52.2349 105.091 51.7718 104.645C50.8365 103.743 50.2977 102.507 50.2738 101.208C50.2499 99.9094 50.743 98.6543 51.6445 97.719C52.546 96.7837 53.7821 96.2448 55.081 96.221C55.7361 96.1751 56.3938 96.2614 57.0149 96.4749C57.6361 96.6884 58.2078 97.0246 58.6963 97.4636C59.1849 97.9026 59.5801 98.4353 59.8585 99.0301C60.137 99.625 60.2928 100.27 60.317 100.926C60.3412 101.582 60.2331 102.237 59.9991 102.851C59.7652 103.464 59.4102 104.025 58.9553 104.498C58.5004 104.972 57.9548 105.349 57.3511 105.608C56.7473 105.866 56.0978 106.001 55.441 106.003L55.261 106.015ZM55.105 96.9652C54.2838 96.9942 53.4898 97.2662 52.8232 97.7467C52.1567 98.2272 51.6477 98.8946 51.3606 99.6645C51.0735 100.434 51.0212 101.272 51.2104 102.072C51.3996 102.871 51.8217 103.597 52.4233 104.156C53.0249 104.716 53.7791 105.085 54.5903 105.216C55.4014 105.346 56.2332 105.234 56.9803 104.892C57.7274 104.55 58.3563 103.994 58.7874 103.294C59.2185 102.595 59.4323 101.783 59.402 100.962C59.3582 99.8637 58.8819 98.827 58.077 98.0783C57.272 97.3295 56.2037 96.9294 55.105 96.9652Z" fill="black"/>
<path d="M50.6396 45.3528C49.9679 45.377 49.3185 45.6 48.7735 45.9935C48.2286 46.387 47.8126 46.9333 47.5783 47.5633C47.344 48.1932 47.3019 48.8786 47.4572 49.5325C47.6126 50.1864 47.9585 50.7796 48.4511 51.2369C48.9437 51.6942 49.5608 51.9951 50.2245 52.1014C50.8881 52.2078 51.5685 52.1149 52.1793 51.8345C52.7902 51.554 53.3041 51.0987 53.656 50.5261C54.008 49.9534 54.1821 49.2892 54.1564 48.6176C54.122 47.7186 53.7324 46.87 53.0731 46.2579C52.4138 45.6459 51.5386 45.3204 50.6396 45.3528Z" fill="#13BF89"/>
</svg>

<svg xmlns="http://www.w3.org/2000/svg" width="165" height="165" fill="none"><path fill="#9B7EDE" d="M83.78 60.345H52.871v30.727h30.907z"/><path fill="#66D7D1" d="M83.78 60.345H52.871v3.337h30.907z"/><path fill="#fff" d="M76.806 87.254a10.8 10.8 0 0 1-7.55-4.02 10.7 10.7 0 0 1-2.064-4.418 7.107 7.107 0 0 1-5.786-11.127l.624.409a6.363 6.363 0 0 0 5.03 9.914c-.15-1.027-.15-2.07 0-3.097.24-1.536 1.116-3.409 2.844-3.66a2.84 2.84 0 0 1 2.917 1.764 3.6 3.6 0 0 1-.432 3.385 5.35 5.35 0 0 1-2.7 2.088c-.56.19-1.14.311-1.73.36a9.87 9.87 0 0 0 8.907 7.706zm-6.566-15.22h-.216c-1.32.193-2.016 1.753-2.208 3.025a9.6 9.6 0 0 0 0 2.989 6.3 6.3 0 0 0 1.62-.324 4.64 4.64 0 0 0 2.34-1.705 2.86 2.86 0 0 0 .36-2.676 2.12 2.12 0 0 0-1.896-1.309"/><path fill="#F8C49E" d="m83.083 88.383 22.205-2.677-7.933-28.05-15.364 1.86.12 3.397.408 10.442z"/><path fill="#000" d="M82.52 73.356a17.6 17.6 0 0 0 6.29-1.969 17.77 17.77 0 0 0 7.513-7.814c-4.573-.168-9.122-.492-13.695-.66h-.504z"/><path fill="#F8C49E" d="M113.836 46.72a6.24 6.24 0 0 1-3.337 5.246 7.2 7.2 0 0 1-6.734-.24 18.34 18.34 0 0 1-5.03 10.803 17.7 17.7 0 0 1-3.264 2.652h-.084a18 18 0 0 1-13.095 2.22 16 16 0 0 1-2.545-.78 17.43 17.43 0 0 1-10.406-11.846c-1.032-4.201-.432-8.618.288-12.88a36.5 36.5 0 0 1 2.7-9.746q.055-.142.133-.276a16.5 16.5 0 0 1 1.812-2.892l.204-.253a15.7 15.7 0 0 1 9.986-5.34 15 15 0 0 1 2.077-.133 17.78 17.78 0 0 1 12.495 5.498 18.4 18.4 0 0 1 2.028 2.496 21 21 0 0 1 3.493 10.07 6.29 6.29 0 0 1 6.254-.083l.372.228a6.24 6.24 0 0 1 2.653 5.257"/><path fill="#000" d="m106.55 48.81-.708-.156v-4.885h.744v3.6a3.95 3.95 0 0 1 1.368-.924 3.85 3.85 0 0 1 2.881 0l-.288.684c-.743-.3-1.574-.3-2.317 0a3.15 3.15 0 0 0-1.68 1.68m-24.211 4.129c-.21 0-.418-.04-.612-.12a1.5 1.5 0 0 1-.84-.78 3.4 3.4 0 0 1-.097-1.465l.613-6.77.756.073-.624 6.77c-.06.376-.039.76.06 1.128a.76.76 0 0 0 .42.348.78.78 0 0 0 .636 0l.324.672a1.5 1.5 0 0 1-.636.144m2.484 3.206h-.12v-.756a2.92 2.92 0 0 0 2.16-.865 2.86 2.86 0 0 0 .805-2.184h.756a3.6 3.6 0 0 1-3.6 3.853zm3.025-11.608c.072.588.444 1.032.84.984s.648-.564.576-1.2-.444-1.02-.828-.972-.66.6-.588 1.188m-12.423.348c.072.576.444 1.02.84.972s.648-.564.576-1.2-.444-1.02-.84-.972-.648.576-.576 1.2m14.26-3.756c.365.049.736.024 1.092-.072.612-.288.6-.936 0-1.32a4.3 4.3 0 0 0-2.1-.54 2.4 2.4 0 0 0-1.549.264.924.924 0 0 0-.204 1.2c.588.924 1.909.456 2.76.468m-14.607.708c-.36.078-.732.078-1.092 0-.636-.216-.696-.864-.168-1.308a4.3 4.3 0 0 1 2.052-.72 2.4 2.4 0 0 1 1.573.12.924.924 0 0 1 .312 1.2c-.48.972-1.825.624-2.677.708"/><path fill="#F8C49E" d="M15.759 40.695c-2.401.396-1.753 8.762-1.02 14.272Z"/><path fill="#F8C49E" d="M14.715 54.967c-1.02-4.057-3.133-10.803-5.726-10.179-3.949.864 2.245 31.928 2.245 31.928l23.814-12.627c-3.037-6.506 1.452-12.82-1.32-13.851-2.773-1.033-5.354 5.677-5.354 5.677s-2.737-14.632-5.893-14.08c-1.585.277-1.56 5.798-1.417 8.955-1.344-4.37-3.6-10.37-5.305-10.107"/><path fill="#000" d="M20.8 52.47c-.312-7.045.228-10.742 1.608-10.994l.133.744c-.697.12-1.297 3.373-.985 10.214zm-6.433 2.546c-1.26-9.399-.816-14.344 1.332-14.68l.12.732c-.588.096-2.4 1.38-.708 13.852zm8.281 11.15a9.11 9.11 0 0 1 4.13-7.994l.407.624a8.4 8.4 0 0 0-3.793 7.334zm.547-10.751-10.091 3.542.25.713 10.092-3.541z"/><path fill="#13BF89" d="M149.148 142.672s-15.796-59.859-23.85-63.615-22.914-3.925-22.914-3.925-16.684 15.147-19.696.864c0 0-12.075.588-17.032 2.856-4.958 2.269-18.137 7.562-18.137 7.562L35.05 64.09 11.26 76.705s5.185 62.667 49.667 42.838v23.118z"/><path fill="#000" d="m114.087 82.01-.504-.373.792-17.224.612-.276 14.608 11.559-.108.648zm1.008-16.805-.756 15.904 14.248-5.245z"/><path fill="#D4F5BD" d="M86.624 135.698a34.2 34.2 0 0 1-4.285 7.034H45.262c-2.28-2.905-4.585-5.917-5.557-9.47s-.24-8.078 2.808-10.323a7.082 7.082 0 0 1 11.283 5.449 25.42 25.42 0 0 1 6.77-15.795c4.117-4.141 10.358-6.374 16.023-4.91a16.91 16.91 0 0 1 11.45 11.487 23.8 23.8 0 0 1-1.415 16.528"/><path fill="#fff" d="m57.578 142.852-.553-.504a43 43 0 0 1 5.522-4.802c4.285-3.108 7.886-4.273 10.73-3.48 2.653.744 4.525 3.204 5.582 7.333a43 43 0 0 1 4.633-8.774c4.525-6.481 10.058-9.674 16.012-9.206v.744c-13.756-1.068-20.25 18.473-20.31 18.677h-.72c-.924-4.573-2.724-7.202-5.34-8.006-6.326-1.861-15.472 7.922-15.556 8.018"/><path fill="#000" d="M104.556 41.38a7 7 0 0 1-4.8-4.117 18.2 18.2 0 0 1-1.441-6.362c.657.39 1.427.547 2.184.445h.601a21 21 0 0 1 3.456 10.034M70.924 28.572a2.65 2.65 0 0 0-.9 2.989 3.6 3.6 0 0 0 2.4 2.185 5.57 5.57 0 0 0 3.313-.096 7.92 7.92 0 0 0 4.201-3.085 4.61 4.61 0 0 0 3.601 3.457 4.35 4.35 0 0 0 4.273-2.197"/><path fill="#18284E" d="M102.791 34.442 74.26 29.064l.204-.252a15.7 15.7 0 0 1 9.986-5.34 15 15 0 0 1 2.077-.133 17.78 17.78 0 0 1 12.495 5.498 19.6 19.6 0 0 1 3.769 5.605"/><path fill="#18284E" d="m58.34 25.684-.14.743 44.527 8.39.14-.744z"/><path fill="#06A787" d="M156.193 70.967a25.3 25.3 0 0 1-3.841 9.866 11.4 11.4 0 0 1-2.509 2.689l-2.052-2.629.864 3.421a8.76 8.76 0 0 1-5.929 1.2 13.2 13.2 0 0 1 8.009-13.479 13.2 13.2 0 0 1 5.458-1.032z"/><path fill="#CCED9F" d="m150.347 64.485-3.433.756 3.277.66c0 .325-.108.649-.168.949a14.3 14.3 0 0 1-3.205 6.71 9.92 9.92 0 0 1-7.045 3.192 15.1 15.1 0 0 1 10.706-17.872c-.036 1.74.012 3.733-.132 5.605"/><path fill="#000" d="M135.477 108.176h-.733c-1.116-11.031 2.149-29.276 9.603-40.702l.624.408c-6.722 10.382-9.986 26.406-9.602 37.461 2.088-9.746 5.449-19.697 13.743-28.039l.528.528c-8.99 8.942-12.111 19.865-14.163 30.344"/><path fill="#8893E3" d="M135.799 142.672c12.065 0 21.846-8.534 21.846-19.061s-9.781-19.06-21.846-19.06-21.845 8.534-21.845 19.06c0 10.527 9.781 19.061 21.845 19.061"/><path fill="#8893E3" d="M140.434 100.47h-9.254v8.33h9.254z"/><path fill="#000" d="M55.261 106.015a4.898 4.898 0 1 1-.18-9.794 4.896 4.896 0 1 1 .36 9.782zm-.156-9.05a4.153 4.153 0 1 0 4.297 3.997 4.165 4.165 0 0 0-4.297-3.997"/><path fill="#13BF89" d="M50.64 45.353a3.397 3.397 0 1 0 .244 6.789 3.397 3.397 0 0 0-.244-6.79"/></svg>
